src/assets/filled/MusicSquareSearch.svg

<svg width="24" height="24" viewBox="0 0 24 24"  xmlns="http://www.w3.org/2000/svg">
<path d="M22.79 21.76L22.07 21.04C22.44 20.48 22.66 19.8 22.66 19.08C22.66 17.1 21.06 15.5 19.08 15.5C17.1 15.5 15.5 17.1 15.5 19.08C15.5 21.06 17.1 22.66 19.08 22.66C19.81 22.66 20.48 22.44 21.04 22.07L21.76 22.79C21.9 22.93 22.09 23 22.27 23C22.46 23 22.64 22.93 22.78 22.79C23.07 22.5 23.07 22.04 22.79 21.76Z" />
<path d="M12.23 12.0701C11.82 12.0701 11.49 12.4001 11.49 12.8101C11.49 13.2201 11.82 13.5501 12.23 13.5501C12.64 13.5501 12.97 13.2201 12.97 12.8101C12.97 12.4001 12.64 12.0701 12.23 12.0701Z" />
<path d="M6.76002 13.0601C6.35002 13.0601 6.02002 13.3901 6.02002 13.8001C6.02002 14.2101 6.35002 14.5401 6.76002 14.5401C7.17002 14.5401 7.50002 14.2101 7.50002 13.8001C7.50002 13.3901 7.17002 13.0601 6.76002 13.0601Z" />
<path d="M16.19 2H7.81C7.53 2 7.26 2.01 7 2.05C3.85 2.34 2 4.45 2 7.81V16.19C2 19.55 3.85 21.66 7 21.95C7.26 21.99 7.53 22 7.81 22H13.5C13.89 22 14.14 21.56 13.99 21.2C13.7 20.51 13.5 19.71 13.5 19C13.5 15.97 15.97 13.5 19 13.5C19.76 13.5 20.5 13.65 21.18 13.95C21.55 14.11 22 13.86 22 13.46V7.81C22 4.17 19.83 2 16.19 2ZM14.48 8.05V12.81C14.48 12.82 14.47 12.83 14.47 12.85C14.45 14.07 13.46 15.06 12.23 15.06C10.99 15.06 9.99 14.05 9.99 12.82C9.99 11.58 11 10.58 12.23 10.58C12.49 10.58 12.74 10.63 12.98 10.72V9.03L9.01 10.11V13.81C9.01 13.82 9 13.83 9 13.84C8.98 15.06 7.99 16.04 6.76 16.04C5.52 16.04 4.52 15.03 4.52 13.8C4.52 12.57 5.53 11.56 6.76 11.56C7.02 11.56 7.27 11.61 7.5 11.7V9.54V7.79C7.5 6.86 8.08 6.11 8.97 5.87L11.95 5.05C12.88 4.8 13.45 5.05 13.77 5.29C14.23 5.64 14.46 6.21 14.46 6.97V8.05H14.48Z" />
</svg>

<?xml version="1.0" encoding="UTF-8"?>
<svg width="24" height="24" viewBox="0 0 24 24" xmlns="http://www.w3.org/2000/svg">
 <path d="m22.79 21.76-0.72-0.72c0.37-0.56 0.59-1.24 0.59-1.96 0-1.98-1.6-3.58-3.58-3.58s-3.58 1.6-3.58 3.58 1.6 3.58 3.58 3.58c0.73 0 1.4-0.22 1.96-0.59l0.72 0.72c0.14 0.14 0.33 0.21 0.51 0.21 0.19 0 0.37-0.07 0.51-0.21 0.29-0.29 0.29-0.75 0.01-1.03z"/>
 <path d="m12.23 12.07c-0.41 0-0.74 0.33-0.74 0.74s0.33 0.74 0.74 0.74 0.74-0.33 0.74-0.74-0.33-0.74-0.74-0.74z"/>
 <path d="m6.76 13.06c-0.41 0-0.74 0.33-0.74 0.74s0.33 0.74 0.74 0.74 0.74-0.33 0.74-0.74-0.33-0.74-0.74-0.74z"/>
 <path d="m16.19 2h-8.38c-0.28 0-0.55 0.01-0.81 0.05-3.15 0.29-5 2.4-5 5.76v8.38c0 3.36 1.85 5.47 5 5.76 0.26 0.04 0.53 0.05 0.81 0.05h5.69c0.39 0 0.64-0.44 0.49-0.8-0.29-0.69-0.49-1.49-0.49-2.2 0-3.03 2.47-5.5 5.5-5.5 0.76 0 1.5 0.15 2.18 0.45 0.37 0.16 0.82-0.09 0.82-0.49v-5.65c0-3.64-2.17-5.81-5.81-5.81zm-1.71 6.05v4.76c0 0.01-0.01 0.02-0.01 0.04-0.02 1.22-1.01 2.21-2.24 2.21-1.24 0-2.24-1.01-2.24-2.24 0-1.24 1.01-2.24 2.24-2.24 0.26 0 0.51 0.05 0.75 0.14v-1.69l-3.97 1.08v3.7c0 0.01-0.01 0.02-0.01 0.03-0.02 1.22-1.01 2.2-2.24 2.2-1.24 0-2.24-1.01-2.24-2.24s1.01-2.24 2.24-2.24c0.26 0 0.51 0.05 0.74 0.14v-3.91c0-0.93 0.58-1.68 1.47-1.92l2.98-0.82c0.93-0.25 1.5 0 1.82 0.24 0.46 0.35 0.69 0.92 0.69 1.68v1.08h0.02z"/>
</svg>
